img/dribble.svg

<svg width="33" height="33" viewBox="0 0 33 33" fill="none" xmlns="http://www.w3.org/2000/svg">
<path d="M16.6825 1.77051C24.867 1.77051 31.489 8.39252 31.489 16.5646C31.489 24.7367 24.867 31.3712 16.6825 31.3712C8.49793 31.3712 1.87592 24.7492 1.87592 16.5771C1.87592 8.40494 8.49793 1.77051 16.6825 1.77051Z" fill="#E74D89"/>
<path d="M16.6827 32.4256C7.92775 32.4256 0.809692 25.32 0.809692 16.5774C0.809692 7.82245 7.92775 0.716797 16.6827 0.716797C25.4377 0.716797 32.5557 7.82245 32.5557 16.565C32.5557 25.3076 25.4377 32.4256 16.6827 32.4256ZM30.0632 18.7352C29.6044 18.5864 25.8717 17.4827 21.6182 18.1523C23.3916 23.0134 24.1108 26.9817 24.2472 27.8002C27.2978 25.754 29.4679 22.505 30.0632 18.7352ZM21.9778 29.0526C21.7794 27.8622 20.9858 23.7203 19.0885 18.7848C19.0636 18.7972 19.0265 18.8095 19.0017 18.8095C11.3503 21.4757 8.60977 26.7709 8.36178 27.2669C10.6559 29.0526 13.5453 30.1191 16.6827 30.1191C18.5552 30.1315 20.3533 29.747 21.9778 29.0526ZM6.61327 25.6424C6.92329 25.1215 10.6435 18.9707 17.6376 16.7014C17.8112 16.6394 17.9972 16.5898 18.1708 16.5402C17.836 15.7713 17.4639 15.0025 17.0671 14.2461C10.2963 16.2674 3.72388 16.1806 3.12864 16.1681C3.12864 16.3046 3.11624 16.441 3.11624 16.5774C3.12864 20.062 4.44312 23.2366 6.61327 25.6424ZM3.41386 13.812C4.02149 13.8245 9.60184 13.8492 15.951 12.1627C13.7065 8.16967 11.276 4.82146 10.9287 4.33783C7.12169 6.12354 4.29432 9.62057 3.41386 13.812ZM13.5081 3.42017C13.8801 3.9162 16.3479 7.26442 18.5676 11.3443C23.3916 9.53379 25.4252 6.80559 25.6733 6.45837C23.2799 4.33783 20.1301 3.04815 16.6827 3.04815C15.5914 3.04815 14.525 3.18455 13.5081 3.42017ZM27.1738 8.02087C26.8886 8.40525 24.6192 11.3195 19.6093 13.3656C19.9193 14.0104 20.2294 14.6677 20.5145 15.325C20.6137 15.5605 20.7129 15.7962 20.8122 16.0194C25.326 15.4489 29.8028 16.3666 30.2492 16.4534C30.212 13.2664 29.0711 10.3274 27.1738 8.02087Z" fill="#B2215A"/>
</svg>

<svg width="33" height="33" fill="none" xmlns="http://www.w3.org/2000/svg"><path d="M16.683 1.77c8.184 0 14.806 6.623 14.806 14.795S24.867 31.37 16.683 31.37c-8.185 0-14.807-6.622-14.807-14.794S8.498 1.771 16.683 1.771Z" fill="#E74D89"/><path d="M16.683 32.426C7.928 32.426.81 25.32.81 16.577.81 7.822 7.928.717 16.683.717c8.755 0 15.873 7.105 15.873 15.848s-7.118 15.86-15.873 15.86Zm13.38-13.69c-.459-.15-4.191-1.253-8.445-.584 1.774 4.861 2.493 8.83 2.63 9.648 3.05-2.046 5.22-5.295 5.815-9.065Zm-8.085 10.317c-.199-1.19-.992-5.333-2.89-10.268a.23.23 0 0 1-.086.024c-7.652 2.667-10.392 7.962-10.64 8.458a13.505 13.505 0 0 0 8.32 2.852 13.263 13.263 0 0 0 5.296-1.066Zm-15.365-3.41c.31-.521 4.03-6.672 11.025-8.942.173-.062.36-.111.533-.16a35.259 35.259 0 0 0-1.104-2.295c-6.77 2.021-13.343 1.935-13.938 1.922 0 .137-.013.273-.013.41a13.55 13.55 0 0 0 3.497 9.064Zm-3.2-11.831c.608.013 6.189.037 12.538-1.65-2.245-3.992-4.675-7.34-5.022-7.824a13.579 13.579 0 0 0-7.515 9.474ZM13.509 3.42c.372.496 2.84 3.844 5.06 7.924 4.824-1.81 6.857-4.538 7.105-4.886a13.517 13.517 0 0 0-8.99-3.41c-1.092 0-2.158.137-3.175.372Zm13.666 4.6c-.285.385-2.555 3.3-7.565 5.346.31.644.62 1.302.905 1.959.1.236.199.471.298.694 4.514-.57 8.99.348 9.437.434a13.486 13.486 0 0 0-3.075-8.432Z" fill="#B2215A"/></svg>
